client/public/static/images/ic/ic_mailing.svg

<svg fill="none" height="48" viewBox="0 0 56 48" width="56" xmlns="http://www.w3.org/2000/svg" xmlns:xlink="http://www.w3.org/1999/xlink"><linearGradient id="a" gradientUnits="userSpaceOnUse" x1=".366519" x2="54.6662" y1="10.0251" y2="16.1738"><stop offset="0" stop-color="#938eff"/><stop offset="1" stop-color="#b0acfb"/></linearGradient><clipPath id="b"><path d="m0 0h56v48h-56z"/></clipPath><clipPath id="c"><rect height="40" rx="5.4375" width="40" x="8"/></clipPath><g clip-path="url(#b)"><rect fill="url(#a)" height="34.2793" opacity=".4" rx="5" transform="matrix(.999773 -.102905 .0983729 .986376 0 14.1877)" width="52.7787"/><g clip-path="url(#c)" stroke="#1a202c" stroke-linecap="round" stroke-linejoin="round" stroke-width="2"><path d="m38.3334 2.66675-5.8334 16.66665-3.3333-7.5-7.5-3.33332z" fill="#fafdff"/><path d="m38.3334 2.66675-9.1667 9.16665"/><path d="m42.8346 21.1667-4.0833 11.6667-2.3333-5.25-5.25-2.3333z" fill="#fff"/><path d="m18.1693 16.8333-2.9167 8.3333-1.6667-3.75-3.74996-1.6667z" fill="#fff"/><path d="m26.9999 15c-7.5 4.5-5.1132 8.4198-6.5 10.5-3 4.5-4 3.5-5 8" stroke-dasharray="4 4"/><path d="m33.9981 30.0001c-2.4971 3.4999-6.7002.7482-9.9998 2-3.8506 1.4607-3.0645 3.1675-5.4988 4.4999-2.0048 1.0973-5.5033.9998-5.5008 2" stroke-dasharray="3 3"/></g></g></svg>

<svg width="56" height="48" viewBox="0 0 56 48" fill="none" xmlns="http://www.w3.org/2000/svg">
<g clip-path="url(#clip0)">
<rect opacity="0.4" width="52.7787" height="34.2793" rx="5" transform="matrix(0.999773 -0.102905 0.0983729 0.986376 0 14.1877)" fill="url(#paint0_linear)"/>
<g clip-path="url(#clip1)">
<path d="M38.3334 2.66675L32.5 19.3334L29.1667 11.8334L21.6667 8.50008L38.3334 2.66675Z" fill="#FAFDFF" stroke="#1A202C" stroke-width="2" stroke-linecap="round" stroke-linejoin="round"/>
<path d="M38.3334 2.66675L29.1667 11.8334" stroke="#1A202C" stroke-width="2" stroke-linecap="round" stroke-linejoin="round"/>
<path d="M42.8346 21.1667L38.7513 32.8334L36.418 27.5834L31.168 25.2501L42.8346 21.1667Z" fill="white" stroke="#1A202C" stroke-width="2" stroke-linecap="round" stroke-linejoin="round"/>
<path d="M18.1693 16.8333L15.2526 25.1666L13.5859 21.4166L9.83594 19.7499L18.1693 16.8333Z" fill="white" stroke="#1A202C" stroke-width="2" stroke-linecap="round" stroke-linejoin="round"/>
<path d="M26.9999 15C19.4999 19.5 21.8867 23.4198 20.4999 25.5C17.4999 30 16.4999 29 15.4999 33.5" stroke="#1A202C" stroke-width="2" stroke-linecap="round" stroke-linejoin="round" stroke-dasharray="4 4"/>
<path d="M33.9981 30.0001C31.501 33.5 27.2979 30.7483 23.9983 32.0001C20.1477 33.4608 20.9338 35.1676 18.4995 36.5C16.4947 37.5973 12.9962 37.4998 12.9987 38.5" stroke="#1A202C" stroke-width="2" stroke-linecap="round" stroke-linejoin="round" stroke-dasharray="3 3"/>
</g>
</g>
<defs>
<linearGradient id="paint0_linear" x1="0.366519" y1="10.0251" x2="54.6662" y2="16.1738" gradientUnits="userSpaceOnUse">
<stop stop-color="#938EFF"/>
<stop offset="1" stop-color="#B0ACFB"/>
</linearGradient>
<clipPath id="clip0">
<rect width="56" height="48" fill="white"/>
</clipPath>
<clipPath id="clip1">
<rect x="8" width="40" height="40" rx="5.4375" fill="white"/>
</clipPath>
</defs>
</svg>
